packages/kaspersky-hexa-ui-icons/src/iconsSVGs/16/PreventExecution.svg

<svg width="16" height="16" viewBox="0 0 16 16" fill="none" xmlns="http://www.w3.org/2000/svg">
<path d="M13.2737 11.2166L12.9721 11.7389L13.9238 12.6906L14.6829 11.3758C14.8453 11.0945 14.7752 10.7366 14.5187 10.5374L13.2751 9.57165C13.3071 9.33537 13.3237 9.0944 13.3237 8.84986C13.3237 8.60566 13.3072 8.36502 13.2752 8.12905L14.5196 7.16363C14.7763 6.96449 14.8465 6.60641 14.6841 6.32506L13.5297 4.32562C13.3673 4.04437 13.0223 3.92613 12.7215 4.04867L11.2626 4.64313C10.8839 4.34908 10.4641 4.10487 10.0131 3.92058L9.79871 2.36149C9.75446 2.03975 9.47953 1.80005 9.15477 1.80005H6.84601C6.52114 1.80005 6.24615 2.03992 6.20203 2.36178L5.9884 3.92046C5.79426 3.99977 5.60591 4.0902 5.42412 4.19092L6.39361 5.16041C6.51818 5.10606 6.646 5.05786 6.77668 5.01619L7.16745 4.89155L7.413 3.10005H8.58804L8.83444 4.89172L9.22496 5.01632C9.78087 5.19369 10.285 5.48905 10.7075 5.87364L11.0107 6.14956L12.6872 5.46642L13.2748 6.48404L11.8456 7.59278L11.9324 7.99301C11.9921 8.26855 12.0237 8.55515 12.0237 8.84986C12.0237 9.1448 11.992 9.4316 11.9322 9.70734L11.8454 10.1074L13.2737 11.2166Z" fill="black"/>
<path fill-rule="evenodd" clip-rule="evenodd" d="M2.28653 4.64693L1.3437 3.7041C1.08986 3.45026 1.08986 3.0387 1.3437 2.78486C1.59754 2.53102 2.0091 2.53102 2.26294 2.78486L13.7046 14.2266C13.9585 14.4804 13.9585 14.892 13.7046 15.1458C13.4508 15.3996 13.0392 15.3996 12.7854 15.1458L10.9328 13.2932C10.6447 13.4836 10.337 13.6468 10.0132 13.7791L9.79871 15.3386C9.75446 15.6603 9.47953 15.9 9.15477 15.9H6.84601C6.52114 15.9 6.24615 15.6602 6.20203 15.3383L5.98834 13.7792C5.53756 13.5951 5.11795 13.351 4.73933 13.0571L3.28155 13.6519C2.98075 13.7747 2.63552 13.6564 2.47308 13.3751L1.31871 11.3756C1.15632 11.0944 1.22645 10.7364 1.48296 10.5373L2.72618 9.57185C2.6941 9.33551 2.67756 9.09447 2.67756 8.84986C2.67756 8.60558 2.69405 8.36486 2.72606 8.12882L1.48208 7.16374C1.2254 6.9646 1.15516 6.60652 1.3176 6.32517L2.28653 4.64693ZM3.2382 5.5986L2.72692 6.48415L4.15567 7.59258L4.0689 7.99283C4.00915 8.26842 3.97756 8.55508 3.97756 8.84986C3.97756 9.14486 4.0092 9.43172 4.06903 9.7075L4.15584 10.1076L2.7279 11.2164L3.31542 12.2341L4.99083 11.5505L5.29414 11.8265C5.71671 12.211 6.22077 12.5062 6.77663 12.6835L7.16739 12.8082L7.413 14.6H8.58804L8.8345 12.808L9.225 12.6834C9.4925 12.598 9.74799 12.4854 9.98818 12.3486L8.11453 10.4749L7.54531 10.8036C7.3442 10.9197 7.09642 10.9197 6.89531 10.8036C6.6942 10.6875 6.57031 10.4729 6.57031 10.2407V8.93071L3.2382 5.5986Z" fill="black"/>
</svg>

<svg xmlns="http://www.w3.org/2000/svg" width="16" height="16" fill="none" viewBox="0 0 16 16"><path fill="#000" d="m13.2737 11.2166-.3016.5223.9517.9517.7591-1.3148a.65.65 0 0 0-.1642-.8384l-1.2436-.9657a5.38 5.38 0 0 0 .0001-1.4427l1.2444-.9654a.65.65 0 0 0 .1645-.8385l-1.1544-1.9995a.65.65 0 0 0-.8082-.277l-1.4589.5945a5.32 5.32 0 0 0-1.2495-.7225l-.2144-1.5591a.65.65 0 0 0-.644-.5614H6.846a.65.65 0 0 0-.644.5617l-.2136 1.5587a5.3 5.3 0 0 0-.5643.2704l.9695.9695a4 4 0 0 1 .383-.1442l.3908-.1247.2456-1.7914h1.175l.2464 1.7916.3906.1246a4.02 4.02 0 0 1 1.4825.8573l.3032.276 1.6765-.6832.5876 1.0176-1.4292 1.1088.0868.4002a4.04 4.04 0 0 1 .0913.8569c0 .2949-.0317.5817-.0915.8574l-.0868.4001z"/><path fill="#000" fill-rule="evenodd" d="m2.2865 4.647-.9428-.9429a.65.65 0 0 1 .9192-.9192l11.4417 11.4417a.65.65 0 0 1-.9192.9192l-1.8526-1.8526a5.3 5.3 0 0 1-.9196.4859l-.2145 1.5595a.65.65 0 0 1-.644.5614H6.846a.65.65 0 0 1-.644-.5617l-.2137-1.5591a5.3 5.3 0 0 1-1.249-.7221l-1.4577.5948a.65.65 0 0 1-.8085-.2768l-1.1544-1.9995a.65.65 0 0 1 .1643-.8383l1.2432-.9655a5.4 5.4 0 0 1-.0486-.722c0-.2442.0164-.485.0485-.721l-1.244-.965a.65.65 0 0 1-.1645-.8386zm.9517.9516-.5113.8855 1.4288 1.1085-.0868.4002a4.04 4.04 0 0 0-.0913.857c0 .295.0316.582.0914.8577l.0868.4001-1.4279 1.1088.5875 1.0177 1.6754-.6836.3033.276a4.02 4.02 0 0 0 1.4825.857l.3908.1247L7.413 14.6h1.175l.2465-1.792.3905-.1246a4 4 0 0 0 .7632-.3348l-1.8737-1.8737-.5692.3287a.65.65 0 0 1-.975-.5629v-1.31z" clip-rule="evenodd"/></svg>
